!!!ONB: MCCC : IAD0035_08 : Extracted Monophonic Melody
!!!COM: Dvořák, Antonín
!!!OPR: Legends
!!!OMV: 8
!!!SCT: Op.59 ; B.117 (piano duet), B.122 (orchestra)
!!!ODT: 1881///
**kern
*staff1
*clefG2
*k[b-]
*d:
*M6/8
8dd
=5
4cc
8a
4f
8b-
=6
4a
8f
4c
8f
=7
4a
8e
4a
8e
=8
2.a
=9
4.r
4r
8ee
=10
8ee
8ff#
8gg#
8aa
8ccc#
8eee
=11
4eee
8ddd
4ccc#
8ccc#
=12
4ccc#
8bb
4.aa
=13
4.r
4r
8ee
=14
8ee
8ff#
8gg#
8aa
8ccc#
8eee
=15
4eee
8ddd
4ddd
8ccc#
=16
4bb
8aa
4.aa-
=17
4.r
4r
8ccc#
=18
8b
8bb
8b
8aa-
8ee
8eee
=19
4.eee
4r
8ccc#
=20
8b
8bb
8b
8aa-
8ee
8eee
=21
8b
8bb
8b
8eee
8ee
8eee
=22
8bb
8b
8bb
8bb
8b
8bb
=23
8eee
8fff#
8fff#
8fff#
8aaa-
8eee
=24
4.fff#
4.eee
=25
8r
8fff#
8fff#
8fff#
8aaa-
8eee
=26
4.fff#
4.eee
=27
4r
8ff#
4aa-
8ee
=28
4ff#
8ff#
4aa-
8ee
=29
4ee
8ee
4ff#
8ee
=30
4ff
8ee
4ff
8ee
=31
4ff
8ee
4ff
8fff
=32
4eee
8ccc
4aa
8ddd
=33
4ccc
8aa
4ff
8bb-
=34
4aa
8ff
4cc
8dd
=35
4ff
8dd
4ff
8dd
=36
4.ff[
4ff]
8ddd
=37
4ccc
8aa
4ff
8bb-
=38
4aa
8ff
4cc
8dd
=39
4ff
8dd
4ff
8dd
=40
4ff
8dd
4gg
8ee
=41
4aa
8ff
4bb-
8gg
=42
8ccc
8aa
8ddd
8bb-
8eee
8ccc
=43
4.fff[
4fff]
8ccc
=44
2.fff
=45
4.fff[
4fff]
8ccc
=46
2.fff
=47
4.bb-
4.r
=48
2.r
=49
16bb-
16ccc#
16fff
16bb-
16aa
16ccc
16fff
16ff
16bb-
16ccc#
16fff
16bbb-
=50
16bbb-
16fff#
16eee-
16fff#
16bbb-
16fff
16ccc#
16eee-
16fff
16ccc#
16bb-
16ccc
=51
4.bb-
4.r
=52
2.r
=53
16bb-
16ccc#
16fff
16bb-
16aa
16ccc
16fff
16ff
16bb-
16ccc#
16fff
16bb-
=54
16bbb-
16fff#
16eee-
16fff#
16bbb-
16fff
16ccc#
16eee-
16fff
16ccc#
16bb-
16ccc
=55
4bb-
32bb-
32ccc
32bb-[
32bb-]
8bb-
8ccc
8ddd
=56
4ccc
32ccc
32ddd
32ccc[
32ccc]
8ccc
8ddd
8eee-
=57
4.ddd[
8ddd]
16ccc
16bb-
8fff
=58
4.eee-[
8eee-]
8ddd
8ccc
=59
4fff
16ggg
16fff
4eee-
16fff
16eee-
=60
4ddd
16eee-
16ddd
8ccc
16ddd
16eee-
8fff
=61
8bb-
8fff
8ggg[
4.ggg]
=62
4.r
8ddd
8ccc
8aa
=63
16gg
16bb
16ddd
16gg
16bb
16ddd
4.gg
=64
16ff#
16ddd
16fff#
16ff#
16ddd
16fff#
4.ff#
=65
16bb
16ddd
16ggg
16ddd
16eee
16gg
16eee
16gg
16ccc
16gg
16ddd
16gg
=66
16ddd
16gg
16bb
16gg
16ccc
16aa
16bb
16gg
16aa
16ff#
16gg
16aa
=67
16bb
16ddd
16ggg
16ddd
16eee
16gg
16eee
16gg
16ccc
16gg
16ddd
16gg
=68
16ddd
16gg
16bb
16gg
16ccc
16aa
16bb
16dd
16aa
16dd
16aa
16ddd
=69
16ddd
16gg
16bb
16gg
16ccc
16aa
16bb
16dd
16aa
16dd
16aa
16ddd
=70
16ddd
16gg
16bb
16gg
16ccc
16aa
16bb
16dd
16aa
16dd
16bb
16ff#
=71
8gg
8bb
8ccc[
8ccc]
8aa
8bb[
=72
8bb]
8gg
8aa
8gg
8ff#
8bb[
=73
8bb]
8gg
8aa
8gg
8ff#
8bb[
=74
8bb]
8gg
8aa
4gg
8ff#
=75
4ee
8ff#
16r
16gg
8aa
8bb
=76
4ccc
8bb
16r
16aa
8gg
8ff#
=77
2.ee[
=78
2.ee]
=79
4bb-
8ccc
16r
16ccc#
8eee-
8fff
=80
4fff#
8fff
16r
16eee-
8ccc#
8ccc
=81
2.bb-
=82
4.bb
4.ddd[
=83
4.ddd]
4bb
8ff#
=84
2.gg
=85
4.bb
4ddd
8ggg
=86
4.ggg
4eee
8ccc
=87
4.ddd[
4ddd]
8ddd
=88
4.ddd[
4ddd]
8ddd
=89
4.ddd[
4ddd]
8ddd
=90
4ccc
8aa
4ff
8bb-
=91
4aa
8ff
4cc
8dd
=92
4ff
8dd
4ff
8dd
=93
4.ff[
4ff]
8dddd
=94
8cccc
16aaa
16bbb-
8cccc
8fff
8aaa
8bbb-
=95
8aaa
16cccc
16aaa
8fff[
8fff]
8ffff
8dddd[
=96
16dddd]
16cccc
16bbb-
16aaa
8bbb-
16aaa
16ggg
16fff
16ddd
8ggg
=97
8aaa
16fff
16ggg
8aaa
4.ddd
=98
4.r
4r
8aa
=99
8aa
8bb
8ccc#
8ddd
8eee
8fff
=100
4aaa
8ggg
4fff
8ddd
=101
4fff
8eee
4.ddd
=102
4.r
4r
8aa
=103
8aa
8bb
8ccc#
8ddd
8eee
8fff
=104
4aaa
8ggg
4fff
8ddd
=105
4ggg
8fff
4eee
8ddd
=106
8ccc
8ddd
8ddd
8ddd
8eee
8ccc
=107
4.ddd
4.ccc
=108
8r
8ddd
8ddd
8ddd
8eee
8ccc
=109
4.ddd
4.ccc
=110
8ddd
8eee
8ccc
4.r
=111
8ddd
8eee
8ccc
4.r
=112
2.r
=113
2.r
=114
4r
8bb-
4bbb-
8bb-
=115
4r
8ccc
4cccc
8ccc
=116
2.fff
=117
2.ccc
=118
4.ff
4.r
=119
2.r
=120
4aa
8bb-
4gg
8aa
=121
4ff
8gg
4ee
16ff
16gg
=122
8aa
8ccc
8ddd[
8ddd]
8bb-
8ccc[
=123
8ccc]
8aa
8bb-
8aa
8ff
8gg
=124
4.aa
4.fff
=125
4.aaa
4ggg
8ccc
=126
4.fff
4.aaa
=127
4.fff
4.aaa
=128
4r
8bbb-
4eee
8bb-
=129
4r
8bb-
4ee
8b-
=130
2.r
=131
2.r
=132
4.r
4r
32gg
32bb-
32eee
32ggg
=133
4.fff
4.r
==
*-
